images/marker-mission-side.svg

<?xml version="1.0" encoding="utf-8"?>
<!-- Generator: Adobe Illustrator 21.0.1, SVG Export Plug-In . SVG Version: 6.00 Build 0)  -->
<svg version="1.1" id="Layer_1" xmlns="http://www.w3.org/2000/svg" xmlns:xlink="http://www.w3.org/1999/xlink" x="0px" y="0px"
	 viewBox="0 0 64 64" style="enable-background:new 0 0 64 64;" xml:space="preserve">
<style type="text/css">
	.st0{fill:#555556;}
	.st1{fill:#C8CAC9;}
</style>
<g>
	<circle class="st0" cx="32" cy="32" r="28.9"/>
</g>
<path class="st1" d="M32,3.331L4.8,23.093l10.39,31.976h33.621L59.2,23.093L32,3.331z M42.061,45.779H21.939L15.72,26.641L32,14.814
	l16.28,11.828L42.061,45.779z"/>
</svg>

<svg xmlns="http://www.w3.org/2000/svg" viewBox="0 0 64 64" enable-background="new 0 0 64 64"><style type="text/css">.st0{fill:#555556;} .st1{fill:#C8CAC9;}</style><circle class="st0" cx="32" cy="32" r="28.9"/><path class="st1" d="M32 3.3l-27.2 19.8 10.4 32h33.6l10.4-32-27.2-19.8zm10.1 42.5h-20.2l-6.2-19.1 16.3-11.9 16.3 11.8-6.2 19.2z"/></svg>
